X:1
T:Ich will lobsingen meinem Gott
T:Conrad Hagius
T:Source : Lobgesänge---Ursell---C.Sutorius---1606. Editor: André Vierendeels (28/05/17).
T:Notes : Original clefs : G2, C2, C3, F3 Original note values have been halved Editorial accidentals above the staff Text Middle German (Cantemus Domino gloriose) ( Exod.15)  
T:Ich will lobsingen meinem Gott
T:©
T:©
C:Conrad Hagius
Z:©
%%score [ 1 2 3 4 ]
L:1/8
Q:1/4=120
M:2/2
K:F
V:1 treble nm="Soprano" snm="S"
V:2 treble nm="Alto" snm="A"
V:3 treble-8 nm="Tenor" snm="T"
V:4 bass nm="Bass" snm="B"
V:1
"^1)" c4 c2 d2 | c2 B2 A2 B2 | c4 z4 | c4 B4 | A2 B2 G2 F2- | F2 E2 F4 | c4 c2 d2 | c2 B2 A2 B2 | %8
w: Ich will lob-|sin- gen mei- nem|Gott,|der herr-|lich sich be- wie-|* sen hat,|hat Rotz und|Mann mit gan- tzer|
w: Ja die- ser|ist von al- len|spott|mein Gott,|auch mei- nes Vat-|* ters Gott:|Ich wil ihm|sa- gen preis und|
 c4 z4 | c4 B4 | A2 B2 G2 F2- | F2 E2 F4 | z4 F4 | F2 F2 E2 G2 | A2 G2 G4 | z4 A4 | B2 B2 c2 c2 | %17
w: schar,|im tief-|fen Meer er- seuf-|* fet gar,|der|Herr ist mei- ne|ster- cke gut,|ich|will ihn prei- sen|
w: ehr,|und ihm|er- he- ben im-|* mer- mehr.|Gott|ist ein Kriegs- man|lo- be- sam,|der|Herr all- mech- tig|
 B2 G2 A4 | z4 c4 | c2 B2 A2 A2 | G2 G2 ^F4 | z4 A4 | B2 A2 A2 G2- | G2 F4 E2 | F8 |] %25
w: wol- ge- muht,|er|ist mein helf- fer|wor- den zwar,|da|ich in not und|_ lei- den|war.|
w: ist sein Nam|des|Pha- rons wa- gen|und sein heer,|hat|er ge- wor- ffen|_ in das|Meer.|
V:2
"^2)""^1)" A4 A2 A2 | G2 G2 C2 G2 | E4 z4 | A4 G2 F2 | F2 D2 _E2 C2 | C8 | A4 A2 A2 | G2 G2 C2 G2 | %8
w: Ich willl lob-|sin- gen mei- nem|Gott,|der herr- lich|sich be- wie- sen|hat,|hat Rotz und|Mann mit gan- tzer|
w: Die aus- er-|wel- ten Für- sten|sein,|im ro- ten|Meer ver- sen- cket|sehn:|Die tieff be-|deck- et sie zur|
 E4 z4 | A4 G2 F2 | F2 D2 _E2 C2 | C8 | z4 C4 | D2 C2 C2 E2 | F2 D2 E4 | z4 F4 | F2 G2 G2 F2 | %17
w: schar,|im tief- fen|Meer er- seuf- fen|gar,|der|Herr ist mei- ne|ster- cke gut,|ich|will ihn prei- sen|
w: stund,|sie fie- len|wie ein stein zu|grund.|Herr|dei- ne rech- te|hand eh'ren- hafft|gar|herr- lich ist in|
 F2 C2 C4 | z4 C4 | C2 F2 F2 F2 | D2 D2 D4 |"^-natural" z4 F4 | F6 D2 | _E2 C2 C2 C2 | C8 |] %25
w: wol- ge- muht,|er|ist mein helf- fer|wor- den zwar,|da|ich in|not und lei den|war.|
w: dei- ner krafft,|ja|dei- ne rech- te|star- cker Gott,|den|Feind mit|macht zer- schla- gen|hat.|
V:3
"^3)""^1)" f4 f2 f2 | e2 d2 f2 d2 | c4 z4 | f4 d4 | c2 B4 A2 | G2 G2 F4 | f4 f2 f2 | e2 d2 f2 d2 | %8
w: Ich will lob-|sin- gen mei- nem|Gott,|der herr-|lich sich be-|wie- sen hat,|hat Rotz und|Mann mit gan- tzer|
w: Du hast, O|Herr, mit dei- ner|hand,|an- grif-|fen dei- ne|Feind im Land:|hast sie her-|ni- der gar ge-|
 c4 z4 | f4 d4 | c2 B4 A2 | G2 G2 F4 | z4 A4 | A2 A2 G2 c2 | c2 B2 c4 | z4 c4 | d2 d2 e2 c2 | %17
w: schar,|im tief-|fen Meer er-|seuf- fen gar,|der|Herr ist mei- ne|ster- cke gut,|ich|will ihn prei- sen|
w: leit,|durch dei-|ne gros- sen|herr- lig- keit:|Hast|zwar aus dei- nem|ho- hen thron|dein|grim- men zorn ausz-|
 d2 e2 f4 | z4 f4 | e2 d2 c2 d2 | B2 B2 A4 | z4 c4 | d4 c2 B2- | B2 A2 G2 G2 | F8 |] %25
w: wol- ge muht,|er|ist mein helf- fer|wor- den zwar,|da|ich in not|_ und lei- den|war.|
w: ge- hen lahn,|der|sie nach bos- heit|ih- rer that|wie|stup- peln gar|_ ver- ze- ret|hat.|
V:4
"^4)""^1)""^5)" F,4 F,2 F,2 | C2 G,2 F,2 G,2 | A,4 z4 | F,4 B,4 | F,2 G,2 _E,2 F,2 | C,4 F,4 | %6
w: Ich will lob-|sin- gen mei- nem|Gott,|der herr-|lich sich be- wie-|sen hat,|
w: Das was- ser|sam- let sich ge-|schwind,|durch dei-|nes grim- men star-|cken wind:|
 F,4 F,2 F,2 | C2 G,2 F,2 G,2 | A,4 z4 | F,4 B,4 | F,2 G,2 _E,2 F,2 | C,4 F,4 | z4 F,4 | %13
w: hat Rotz und|Mann mit gan- tzer|schar,|im tief-|fen Meer er- seuf-|fen gar,|der|
w: Die flü- te|der zeit wun- der-|lich|An- schens|the- ten heuf- *|fen sich|sie|
 D,2 F,2 C,2 C,2 | F,2 G,2 C,4 | z4 F,4 | B,2 G,2 C2 A,2 | B,2 C2 F,4 | z4 F,4 | A,2 B,2 F,2 D,2 | %20
w: Herr ist mei- ne|ster- cke gut,|ich|will ihn prei- sen|wol- ge- muht,|er|ist mein helf- fer|
w: stun- den fest ohn|al- len lauff,|wie|ein Maur wirt ge-|fü- ret auff|die|tief- fe mit- ten|
 G,2 G,2 D,4 |"^-natural" z4 F,4 | B,,C,D,E, F,2 G,2 | _E,2 F,2 C,2 C,2 | F,8 |] %25
w: wor- den zwar,|da|ich _ _ _ _ in|not und lei- den|war.|
w: in dem Meer|zu-|sam- * * * * men|rü- men weit und|fer.|

